!!!OTL: Altes Fastenlied. / (14 Jahrh.)
!!!ARE: Europa, Mitteleuropa, Deutschland
!!!SCT: A0546A
!!!TXL: @@DE
!!!YEM: Copyright 1995, estate of Helmut Schaffrath.
**kern	**text
*M4/2	*
*met(c|)	*
*clefC4	*
*k[b-]	*
*G:dor	*
!LO:TX:a:t=dor. tr.	!
!LO:TX:a:t=P:1r, 2r in the source:problem	!
2ryy	.
{2G	O
=1	=1
1G	Je-
1d	-ſu,
=2	=2
1A	du
!LO:TX:a:t=..	!
1c	biſt
=3	=3
!LO:TX:a:t=..	!
1B-	mild
1A	vnd
=4	=4
1G	gut,}
2r}	.
{2G	Wir
=5	=5
1G	bittn
1d	dich
=6	=6
1A	Herr
!LO:TX:a:t=..	!
1c	durch_dein
=7	=7
!LO:TX:a:t=..	!
1B-	roſen-
1A	-farbs
=8	=8
1G	Blut,}
2r}	.
{2G	Wol
=9	=9
1F	durch
1B-	dein
=10	=10
*lig	*
1A	Heil-
2A/	-gen
*Xlig	*
2G	fünff
=11	=11
*lig	*
2F	Wun-
2D	.
!LO:TX:a:t=1)	!
1E	.
*Xlig	*
=12	=12
1D	-den,
2r}	.
{2D	auff
=13	=13
1F	daß
1G	wir
=14	=14
1A	Chri-
1d	-ſten
=15	=15
*lig	*
2.d	all-
4c	.
2B-	.
*Xlig	*
2A	-ʒu-
=16	=16
1G	-gleich
2r}	.
!LO:TX:a:t=2)	!
{4D	in
4E	eim
=17	=17
1F	rech-
1G	-ten
=18	=18
*lig	*
2A	glauben
2B-	.
2c	werdn
*Xlig	*
2d	er-
=19	=19
*lig	*
!LO:N:vis=0	!
1B-	-fun-
!LO:N:vis=0	!
1A	.
*Xlig	*
=20	=20
1G/ll}	-den.
==	==
!!!GTL: Geistliche Volkslieder
!!!AGN: Romanze, Ballade, Lied, religioeses Lied
!! Beuttners Gsgb. 1602 I No. 15.
!!!ONB: ESAC (Essen Associative Code) Database: ALTDEU
!!!AMT: simple quadruple
!!!AIN: vox
!!!EED: Helmut Schaffrath
!!!EEV: 1.0
!!@@COMMENT:"Das Original der Melodir hat zwei Druckfehler, bei 1= g statt e. 2) zwei Minimae."
!!@@END:
!!!RDF**kern: l = terminal long
!!!AMD: Dorian
!!!URL-scan: https://rosdok.uni-rostock.de/mcrviewer/recordIdentifier/rosdok_ppn738218359/iview2/phys_0726.iview2?x=-495.6391625615763&y=1576.0078817503527&scale=0.4629418472063854&rotation=0&layout=singlePageLayout&logicalDiv=log_0007
!!!ENC: Anna Maria Matuszewska
!!!EEV: 2024/20/03
*-	*-
